X:72
T:Vilea Svengaa
M:4/4
L:1/8
Q:1/4=120
C:Dick Atlee
S:Trevor Corson's 40th birthday, July 2009
R:humppa
N:Trevor, an avid contra and swing dancer, became interested in things
N:Finnish for romantic reasons.  The tune's name is the translation the
N:Finnish embassy provided for "Still Swinging;" a humppa is a Finnish
N:foxtrot
K:Dm
"Dm" f d2 d "A7" e2 ^c2 | "Gm" d "A7" e2 f "Dm" dDFA | !
|: "Dm" d z A c2 "Gm" B2 G | "Dm" A z F G2 "A7" E F2 | "Edim" E F2 G^G A2 =B |!
"A7" c^cd^d ec=de | "Dm" fd z A "Gm" f2 e2 | "C" ed z B "F" d2 c2 | !
"Gm" BG z E "A7" AEGE |[1 "Gm" G z/2 F/2 "A7" EF "Dm" D/2 z/2A,DF :|
[2 "Gm" G z/2 F/2 "A7" EF "Dm" D z A/2=B/2^c/2e/2 | !
|: "Dm" fed f2 e2 d | "C" edc e2 d2 c |
"Bb" dcB d2 c2 B | "A7" A2 =B ^c2 d2 e | !
"Dm" fde f2 a2 f | "C" gce g2 b2 g |
"Bb" fdf b2 d f2 | "A7" e2  z2 e2 f2 :| !
"Dm" A2 D F2 DGA | "Gm" B2 A G2 F2 F |
"C" G2 F E2 CFG | "A7" A2 G A2 GFE | !
"Dm" F z ED z  DEF | "C" G z FE z EFG |
"Bb" F z ED z E F2 | "A7" (E4 E) A=B^c | !
"Dm" d2 Ac z "Gm" B2 G | "Dm" A2 FG z "A7" E F2 |
"Edim" E F2 G^G A2 =B | "A7" c^cd^d ec=de | !
"Dm" fd z A "Gm" f2 e2 | "C" ed z B "F" d2 c2 |
"Gm" BG z E "A7" AEGE |"Gm" G z/2 F/2 "A7" EF "Dm" D z [F2A2d2] ||
